X: 1
T: Miss MacDermot
M: 4/4
L: 1/8
R: strathspey
K: Emin
|: BA G2 F2 E2 | BA G2 F2 E2 | B2 c2 B2 A2 | dc Bc BA G2 |
B2 AB AG FA | FE DD EF G2 | BA G2 FE GF | ED E2 E2 E2 :|
|: B2 e2 cd e2 | f2 g2 G2 G2 | g2 gf ed cB | AG FG FE D2 |
EF G2 FG A2 | GA B2 B2 e2 | c2 d2 G2 c2 | dc B2 G2 A2 |
BA AG FE DD | EF G2 BA G2 | FE GF ED E2 | E4 E4 :|
